X:354
T: DER JAEGERSMANN TRAT INS HUETTCHEN SEIN
N: F0621
O: Europa, Mitteleuropa, Deutschland
R: Staende -, Jaeger - Lied, Unglueck, Tod
M: 6/8
L: 1/16
K: E
B2 | B4=G2B3AG2 | F4F2=G4
B2 | e4B2=G4E2 | B8z2
B2 | B4=G2B3AG2 | F4F2=G4
B2 | e4B2=G4E2 | B8z2
B2 | F3FF2=G3GA2 | B2A2=G2F4
B2 | F3FF2=G3GA2 | B2A2=G2F4
G2 | =G4B2B4e2 | e6-e4
^A2 | B2e2B2A2=G2F2 | B6e2z2
^A2 | B2e2B2A2=G2F2 | E6-E2z2

@@@ Tune index: 5785
